tools/download-figma-icons/icons/outlined-large/price-guarantee.svg

<svg width="64" height="64" viewBox="0 0 64 64" fill="none" xmlns="http://www.w3.org/2000/svg">
<path fill-rule="evenodd" clip-rule="evenodd" d="M18.5002 21.986C17.6722 21.986 17.0002 21.314 17.0002 20.486C17.0002 19.658 17.6722 18.9861 18.5002 18.9861H21.0172C20.9122 17.9991 20.9122 17.0021 21.0172 16.0131H18.5002C17.6722 16.0131 17.0002 15.3411 17.0002 14.5131C17.0002 13.6851 17.6722 13.0131 18.5002 13.0131H21.6822C22.3052 11.1731 23.3082 9.4421 24.7232 7.97311C29.1412 3.38213 36.1041 2.68813 41.2811 6.31811C41.9591 6.79411 42.1241 7.72911 41.6481 8.4081C41.1731 9.0871 40.2381 9.2501 39.5591 8.7751C35.5991 5.99911 30.2682 6.53511 26.8842 10.0531C26.0342 10.9361 25.3782 11.9431 24.8942 13.0131H31.4991C32.3271 13.0131 32.9991 13.6851 32.9991 14.5131C32.9991 15.3411 32.3271 16.0131 31.4991 16.0131H24.0322C23.8982 17.0011 23.8982 18.0001 24.0332 18.9861H31.4991C32.3271 18.9861 32.9991 19.658 32.9991 20.486C32.9991 21.314 32.3271 21.986 31.4991 21.986H24.8952C25.3792 23.056 26.0342 24.062 26.8842 24.944C29.5632 27.73 33.4651 28.704 37.0661 27.492C37.9091 27.208 38.7471 26.775 39.5591 26.206C40.2331 25.728 41.1701 25.892 41.6471 26.572C42.1241 27.25 41.9601 28.185 41.2811 28.661C40.2351 29.395 39.1401 29.959 38.0251 30.334C36.6821 30.787 35.3071 31.008 33.9461 31.008C30.5362 31.008 27.2202 29.62 24.7232 27.024C23.3092 25.556 22.3062 23.826 21.6832 21.986H18.5002ZM59.8727 47.2442C60.3537 47.0102 60.7137 46.6032 60.8887 46.0982C61.0627 45.5922 61.0297 45.0492 60.7947 44.5692C60.3137 43.5772 59.1147 43.1622 58.1197 43.6472L45.3978 49.8372C45.3684 49.8519 45.3387 49.8617 45.3088 49.8715C45.2918 49.8771 45.2748 49.8827 45.2578 49.8892C44.6598 50.1962 43.9988 50.3842 43.2928 50.4272C43.1958 50.4472 43.0938 50.4572 42.9908 50.4572H24.1589C23.3299 50.4572 22.6589 49.7862 22.6589 48.9572C22.6589 48.1292 23.3299 47.4572 24.1589 47.4572H42.9908C44.0938 47.4572 44.9928 46.5602 44.9928 45.4572C44.9928 44.3552 44.0938 43.4572 42.9908 43.4572C42.9808 43.4572 42.9718 43.4542 42.9608 43.4542H29.2489C28.5709 43.4542 27.9769 42.9982 27.7999 42.3432C27.7409 42.1392 26.1499 36.9993 17.6649 36.9993H2.99999V51.9052L31.8768 60.8902L59.8727 47.2442ZM60.6257 40.7172C61.8897 41.1532 62.9077 42.0542 63.4927 43.2542C64.0767 44.4542 64.1597 45.8122 63.7247 47.0762C63.2887 48.3382 62.3887 49.3572 61.1877 49.9422L32.6568 63.8481C32.6294 63.8615 32.6016 63.87 32.5737 63.8786C32.5578 63.8835 32.5418 63.8883 32.5258 63.8941C32.4888 63.9091 32.4528 63.9221 32.4148 63.9331C32.2778 63.9731 32.1388 63.9991 31.9998 63.9991H31.9988C31.9975 63.9991 31.9961 63.9987 31.9946 63.9982C31.9928 63.9977 31.991 63.9971 31.9888 63.9971C31.8478 63.9961 31.7078 63.9751 31.5749 63.9351C31.5714 63.9341 31.5679 63.9339 31.5644 63.9336C31.5609 63.9334 31.5574 63.9331 31.5539 63.9321L1.05499 54.4422C0.426998 54.2462 0 53.6662 0 53.0092V35.4993C0 34.6713 0.671997 33.9993 1.49999 33.9993H17.6649C26.0829 33.9993 29.2279 38.3463 30.2579 40.4543H42.9908C43.0998 40.4543 43.2048 40.4673 43.3068 40.4903C45.8448 40.6522 47.8638 42.6982 47.9718 45.2492L56.8067 40.9502C58.0077 40.3653 59.3657 40.2843 60.6257 40.7172Z" fill="black"/>
</svg>

<svg width="64" height="64" viewBox="0 0 64 64" fill="none" xmlns="http://www.w3.org/2000/svg"><path fill-rule="evenodd" clip-rule="evenodd" d="M18.5 21.986a1.5 1.5 0 0 1 0-3h2.517a14.07 14.07 0 0 1 0-2.973H18.5a1.5 1.5 0 0 1 0-3h3.182a13.44 13.44 0 0 1 3.041-5.04c4.418-4.59 11.381-5.285 16.558-1.655a1.5 1.5 0 0 1-1.722 2.457C35.6 6 30.27 6.535 26.884 10.053c-.85.883-1.506 1.89-1.99 2.96H31.5a1.5 1.5 0 0 1 0 3h-7.467c-.134.988-.134 1.987.001 2.973H31.5a1.5 1.5 0 0 1 0 3h-6.604a10.44 10.44 0 0 0 1.99 2.958c2.678 2.786 6.58 3.76 10.181 2.548a9.848 9.848 0 0 0 2.493-1.286 1.495 1.495 0 0 1 2.088.366 1.498 1.498 0 0 1-.366 2.089 12.792 12.792 0 0 1-3.256 1.673 12.748 12.748 0 0 1-4.079.674c-3.41 0-6.726-1.388-9.223-3.984a13.435 13.435 0 0 1-3.04-5.038H18.5Zm41.373 25.258a1.99 1.99 0 0 0 1.016-1.146 2 2 0 0 0-2.769-2.451l-12.722 6.19a.639.639 0 0 1-.09.034l-.05.018a4.939 4.939 0 0 1-1.965.538c-.097.02-.2.03-.302.03H24.159a1.5 1.5 0 1 1 0-3H42.99a2.004 2.004 0 0 0 2.002-2c0-1.102-.9-2-2.002-2l-.03-.003H29.249a1.502 1.502 0 0 1-1.45-1.11c-.058-.205-1.65-5.345-10.134-5.345H3v14.906l28.877 8.985 27.996-13.646Zm.753-6.527a4.971 4.971 0 0 1 2.867 2.537c.584 1.2.667 2.558.232 3.822a4.972 4.972 0 0 1-2.537 2.866L32.657 63.848a.461.461 0 0 1-.083.03l-.048.016A1.486 1.486 0 0 1 32 64h-.005l-.006-.002a1.476 1.476 0 0 1-.414-.062l-.01-.001c-.004 0-.008 0-.011-.002l-30.499-9.49A1.5 1.5 0 0 1 0 53.01V35.5A1.5 1.5 0 0 1 1.5 34h16.165c8.418 0 11.563 4.347 12.593 6.455H42.99c.109 0 .214.013.316.036a4.983 4.983 0 0 1 4.665 4.76l8.835-4.3a4.977 4.977 0 0 1 3.819-.233Z" fill="currentColor"/></svg>
